openframe-frontend-core/src/components/icons-v2/brand-logos/tiktok-square.svg

<svg width="24" height="24" viewBox="0 0 24 24" fill="none" xmlns="http://www.w3.org/2000/svg">
<path d="M19.875 6C19.875 4.96447 19.0355 4.125 18 4.125H6C4.96447 4.125 4.125 4.96447 4.125 6V18C4.125 19.0355 4.96447 19.875 6 19.875H18C19.0355 19.875 19.875 19.0355 19.875 18V6ZM22.125 18C22.125 20.2782 20.2782 22.125 18 22.125H6C3.72183 22.125 1.875 20.2782 1.875 18V6C1.875 3.72183 3.72183 1.875 6 1.875H18C20.2782 1.875 22.125 3.72183 22.125 6V18Z" fill="#888888"/>
<path d="M5.875 14.4995C5.87526 12.2216 7.72199 10.3745 10 10.3745C10.6212 10.3745 11.1247 10.8784 11.125 11.4995C11.125 12.1208 10.6213 12.6245 10 12.6245C8.96463 12.6245 8.12526 13.4642 8.125 14.4995C8.125 15.535 8.96447 16.3745 10 16.3745C11.0355 16.3745 11.875 15.535 11.875 14.4995V6.5C11.875 5.87868 12.3787 5.375 13 5.375C13.6213 5.375 14.125 5.87868 14.125 6.5C14.125 7.98861 15.2563 9.21365 16.7061 9.36084L17.0005 9.37549L17.1147 9.38135C17.6821 9.43886 18.1255 9.91792 18.1255 10.5005C18.1252 11.0829 17.682 11.5622 17.1147 11.6196L17.0005 11.6255L16.7368 11.6182C15.7714 11.5693 14.877 11.2528 14.125 10.7422V14.4995C14.125 16.7777 12.2782 18.6245 10 18.6245C7.72183 18.6245 5.875 16.7777 5.875 14.4995Z" fill="#888888"/>
</svg>

<svg xmlns="http://www.w3.org/2000/svg" width="24" height="24" fill="none" viewBox="0 0 24 24">
  <path fill="#888" d="M19.875 6c0-1.036-.84-1.875-1.875-1.875H6c-1.036 0-1.875.84-1.875 1.875v12c0 1.035.84 1.875 1.875 1.875h12c1.035 0 1.875-.84 1.875-1.875V6Zm2.25 12A4.125 4.125 0 0 1 18 22.125H6A4.125 4.125 0 0 1 1.875 18V6A4.125 4.125 0 0 1 6 1.875h12A4.125 4.125 0 0 1 22.125 6v12Z"/>
  <path fill="#888" d="M5.875 14.5A4.125 4.125 0 0 1 10 10.373a1.125 1.125 0 0 1 0 2.25 1.875 1.875 0 1 0 1.875 1.875V6.5a1.125 1.125 0 0 1 2.25 0 2.876 2.876 0 0 0 2.581 2.86l.294.015.115.006a1.126 1.126 0 0 1 0 2.239l-.114.006-.264-.008a5.097 5.097 0 0 1-2.612-.876V14.5a4.125 4.125 0 1 1-8.25 0Z"/>
</svg>
